X: 4235
T: The WISHING WELL
%R: slip-jig
B: James Kerr "Merry Melodies" v.4 p.26 #235
Z: 2016 John Chambers <jc:trillian.mit.edu>
M: 9/8
L: 1/8
K: Am
|:\
EFE A2B c3 | G2G B2c dBG |\
EFE A2B c3 | dfe dcB A3 ::\
GAG c2d e3 | d2e fdc BAG |\
GAG c2d e3 | dfe dcB A3 :|

%%sep 1 1 500
%%sep 1 1 500

